!!!SOCIAL_FUNCTION:	songs of the hand-game
!!!PDT:	1936
!!!OTL: No_38_Cheyenne_Hand-Game_Song_(b).krn
!!!REG: Oklahoma and Montana
!!!LANG: Tone
!!!LING_GROUP: Algonquin
**kern
*staff1
=1-
*clefG2
*k[b-e-a-d-]
*M3/4
8cc/L
8a-/J
8a-/L
8cc/J
8a-/L
8g/J
=2
*M2/4
4a-/
8r
8cc\
=3
8a-/L
8f/J
8f/L
8e-/J
=4
4e-/
4e-/
=5
16e-/
16r
8a-/
8a-/L
8f/J
=6
4a-/
4a-/
=7
8r
8cc\
8a-/L
8f/J
=8
*M3/4
4e-/
4e-/
8r
8g/
=9
*M2/4
8f/L
8f/J
8a-/L
8f/J
=10
*M3/4
4e-/
4.r
8a-/
=11
*M2/4
8f/L
8e-/J
8e-/L
8c/J
=12
4c/
4c/
=13
16c/
16r
8e-/
8c/
8r
=14
4c/
4c/
=15
16c/
16r
8e-/
8c/
8r
=16
4c/
4c/
=17
4c/
4r
==
*-
